assets/static/img/tariffs/2.svg

<svg preserveAspectRatio="xMidYMid meet" viewBox="0 0 135 131" fill="none" xmlns="http://www.w3.org/2000/svg" id="self">
	<path d="M100.822 38.316L103.132 39.254C103.316 39.3289 103.474 39.4571 103.586 39.6222C103.697 39.7874 103.756 39.9819 103.756 40.181V92.271C103.756 92.967 103.062 93.457 102.396 93.256C99.661 92.428 94.761 91.323 89.67 91.323C83.799 91.323 77.094 92.793 74.154 93.612C73.938 93.672 73.712 93.66 73.502 93.581C71.307 92.757 65.98 91.323 59.736 91.323C54.019 91.323 47.888 92.525 44.586 93.36C44.435 93.3988 44.2772 93.4028 44.1244 93.3716C43.9716 93.3405 43.8279 93.2749 43.7042 93.18C43.5805 93.0851 43.48 92.9633 43.4103 92.8239C43.3407 92.6844 43.3036 92.5309 43.302 92.375V40.209C43.302 39.788 43.562 39.412 43.962 39.277C47.034 38.237 53.336 36.529 58.562 36.529C63.788 36.529 70.091 38.237 73.162 39.277C73.562 39.412 73.822 39.787 73.822 40.209V86.755C73.8218 86.9243 73.8646 87.0909 73.9464 87.2391C74.0282 87.3874 74.1463 87.5124 74.2896 87.6026C74.4329 87.6927 74.5967 87.745 74.7658 87.7545C74.9348 87.764 75.1035 87.7305 75.256 87.657L95.559 77.897C95.7286 77.8155 95.8718 77.6878 95.9721 77.5286C96.0724 77.3694 96.1257 77.1852 96.126 76.997V28.607C96.1261 28.4371 96.0829 28.27 96.0004 28.1214C95.918 27.9728 95.7991 27.8477 95.6549 27.7578C95.5107 27.668 95.346 27.6163 95.1763 27.6078C95.0066 27.5992 94.8375 27.6341 94.685 27.709L76.757 36.529" stroke="var(--main-color, #377CB5)" stroke-width="1.5" />
	<path d="M36.938 45V98C36.938 98.2652 37.0433 98.5196 37.2309 98.7071C37.4184 98.8946 37.6728 99 37.938 99H109.12C109.385 99 109.64 98.8946 109.827 98.7071C110.015 98.5196 110.12 98.2652 110.12 98V45" stroke="var(--accent-color, #F58220)" stroke-width="1.5" />
	<path d="M49.666 50.294C51.226 49.589 55.166 48.177 58.443 48.177C61.72 48.177 65.27 49.117 66.636 49.589" stroke="var(--accent-color, #F58220)" stroke-width="1.5" />
	<path d="M49.666 65.118C51.226 64.412 55.166 63 58.443 63C61.72 63 65.27 63.941 66.636 64.412" stroke="var(--main-color, #377CB5)" stroke-width="1.5" />
	<path d="M49.666 57.706C51.226 57 55.166 55.588 58.443 55.588C61.72 55.588 65.27 56.529 66.636 57" stroke="var(--accent-color, #F58220)" stroke-width="1.5" />
	<path d="M49.666 72.53C51.226 71.824 55.166 70.412 58.443 70.412C61.72 70.412 65.27 71.353 66.636 71.824M49.666 79.94C51.226 79.235 55.166 77.823 58.443 77.823C61.72 77.823 65.27 78.764 66.636 79.235M79.362 46.059L91.029 40.765M79.362 53.47L91.029 48.177M79.362 60.882L91.029 55.588M79.362 68.294L91.03 63M79.362 75.706L91.029 70.412" stroke="var(--main-color, #377CB5)" stroke-width="1.5" />
</svg>

<svg xmlns="http://www.w3.org/2000/svg" id="self" fill="none" preserveAspectRatio="xMidYMid meet" viewBox="0 0 135 131"><path stroke="var(--main-color, #377CB5)" stroke-width="1.5" d="m100.822 38.316 2.31.938a1.002 1.002 0 0 1 .624.927v52.09c0 .696-.694 1.186-1.36.985-2.735-.828-7.635-1.933-12.726-1.933-5.871 0-12.576 1.47-15.516 2.289-.216.06-.442.048-.652-.031-2.195-.824-7.522-2.258-13.766-2.258-5.717 0-11.848 1.202-15.15 2.037a1.028 1.028 0 0 1-1.284-.985V40.209c0-.421.26-.797.66-.932 3.072-1.04 9.374-2.748 14.6-2.748s11.529 1.708 14.6 2.748c.4.135.66.51.66.932v46.546a1 1 0 0 0 1.434.902l20.303-9.76a1 1 0 0 0 .567-.9v-48.39a1 1 0 0 0-1.441-.898l-17.928 8.82"/><path stroke="var(--accent-color, #F58220)" stroke-width="1.5" d="M36.938 45v53a1 1 0 0 0 1 1h71.182a1 1 0 0 0 1-1V45"/><path stroke="var(--accent-color, #F58220)" stroke-width="1.5" d="M49.666 50.294c1.56-.705 5.5-2.117 8.777-2.117s6.827.94 8.193 1.412"/><path stroke="var(--main-color, #377CB5)" stroke-width="1.5" d="M49.666 65.118c1.56-.706 5.5-2.118 8.777-2.118s6.827.941 8.193 1.412"/><path stroke="var(--accent-color, #F58220)" stroke-width="1.5" d="M49.666 57.706c1.56-.706 5.5-2.118 8.777-2.118s6.827.941 8.193 1.412"/><path stroke="var(--main-color, #377CB5)" stroke-width="1.5" d="M49.666 72.53c1.56-.706 5.5-2.118 8.777-2.118s6.827.941 8.193 1.412m-16.97 8.116c1.56-.705 5.5-2.117 8.777-2.117s6.827.941 8.193 1.412m12.726-33.176 11.667-5.294M79.362 53.47l11.667-5.293M79.362 60.882l11.667-5.294M79.362 68.294 91.03 63M79.362 75.706l11.667-5.294"/></svg>
